X: 87
M: 6/8
L: 1/8
K: F
c |\
fef fed | cgB AGF | BAB- B(d/c/B) | AGF EGC |\
fef fed | gfg gfe | edc Gc=B | c3- c3 :|
|: c |\
geg gec | afa afd | bag agf | gef T^c3 |\
fef fed | cgB AGF | BAB B(d/c/B) | AGF EGC |\
f2d AGF | gbg edc | fga cfe | f3- f2 |]

